(Exported by FreeCAD)
(Post Processor: grbl_post)
(Output Time:2020-06-13 11:42:17.205557)
(begin preamble)
G17 G90
G21
(begin operation: T4: 30mm)
(Path: T4: 30mm)
(T4: 30mm)
(begin toolchange)
; M6 T4
M3 S0.0000
(finish operation: T4: 30mm)
(begin operation: MillFace)
(Path: MillFace)
(MillFace)
G0 Z5.0000
G0
G0 Z0.0000
G1 X16.0000 Y16.0000 Z-0.5000 F1200.00
G1 X464.0000 Y16.0000 Z-0.5000 F1200.00
G1 X464.0000 Y685.0000 Z-0.5000 F1200.00
G1 X16.0000 Y685.0000 Z-0.5000 F1200.00
G1 X16.0000 Y16.0000 Z-0.5000 F1200.00
G0 X16.0000 Y16.0000 Z5.0000
G0 X31.0000 Y31.0000 Z5.0000
G0 X31.0000 Y31.0000 Z2.5000
G1 X31.0000 Y31.0000 Z-0.5000 F1200.00
G1 X449.0000 Y31.0000 Z-0.5000 F1200.00
G1 X449.0000 Y670.0000 Z-0.5000 F1200.00
G1 X31.0000 Y670.0000 Z-0.5000 F1200.00
G1 X31.0000 Y31.0000 Z-0.5000 F1200.00
G0 X31.0000 Y31.0000 Z5.0000
G0 X46.0000 Y46.0000 Z5.0000
G0 X46.0000 Y46.0000 Z2.5000
G1 X46.0000 Y46.0000 Z-0.5000 F1200.00
G1 X434.0000 Y46.0000 Z-0.5000 F1200.00
G1 X434.0000 Y655.0000 Z-0.5000 F1200.00
G1 X46.0000 Y655.0000 Z-0.5000 F1200.00
G1 X46.0000 Y46.0000 Z-0.5000 F1200.00
G0 X46.0000 Y46.0000 Z5.0000
G0 X61.0000 Y61.0000 Z5.0000
G0 X61.0000 Y61.0000 Z2.5000
G1 X61.0000 Y61.0000 Z-0.5000 F1200.00
G1 X419.0000 Y61.0000 Z-0.5000 F1200.00
G1 X419.0000 Y640.0000 Z-0.5000 F1200.00
G1 X61.0000 Y640.0000 Z-0.5000 F1200.00
G1 X61.0000 Y61.0000 Z-0.5000 F1200.00
G0 X61.0000 Y61.0000 Z5.0000
G0 X76.0000 Y76.0000 Z5.0000
G0 X76.0000 Y76.0000 Z2.5000
G1 X76.0000 Y76.0000 Z-0.5000 F1200.00
G1 X404.0000 Y76.0000 Z-0.5000 F1200.00
G1 X404.0000 Y625.0000 Z-0.5000 F1200.00
G1 X76.0000 Y625.0000 Z-0.5000 F1200.00
G1 X76.0000 Y76.0000 Z-0.5000 F1200.00
G0 X76.0000 Y76.0000 Z5.0000
G0 X91.0000 Y91.0000 Z5.0000
G0 X91.0000 Y91.0000 Z2.5000
G1 X91.0000 Y91.0000 Z-0.5000 F1200.00
G1 X389.0000 Y91.0000 Z-0.5000 F1200.00
G1 X389.0000 Y610.0000 Z-0.5000 F1200.00
G1 X91.0000 Y610.0000 Z-0.5000 F1200.00
G1 X91.0000 Y91.0000 Z-0.5000 F1200.00
G0 X91.0000 Y91.0000 Z5.0000
G0 X106.0000 Y106.0000 Z5.0000
G0 X106.0000 Y106.0000 Z2.5000
G1 X106.0000 Y106.0000 Z-0.5000 F1200.00
G1 X374.0000 Y106.0000 Z-0.5000 F1200.00
G1 X374.0000 Y595.0000 Z-0.5000 F1200.00
G1 X106.0000 Y595.0000 Z-0.5000 F1200.00
G1 X106.0000 Y106.0000 Z-0.5000 F1200.00
G0 X106.0000 Y106.0000 Z5.0000
G0 X121.0000 Y121.0000 Z5.0000
G0 X121.0000 Y121.0000 Z2.5000
G1 X121.0000 Y121.0000 Z-0.5000 F1200.00
G1 X359.0000 Y121.0000 Z-0.5000 F1200.00
G1 X359.0000 Y580.0000 Z-0.5000 F1200.00
G1 X121.0000 Y580.0000 Z-0.5000 F1200.00
G1 X121.0000 Y121.0000 Z-0.5000 F1200.00
G0 X121.0000 Y121.0000 Z5.0000
G0 X136.0000 Y136.0000 Z5.0000
G0 X136.0000 Y136.0000 Z2.5000
G1 X136.0000 Y136.0000 Z-0.5000 F1200.00
G1 X344.0000 Y136.0000 Z-0.5000 F1200.00
G1 X344.0000 Y565.0000 Z-0.5000 F1200.00
G1 X136.0000 Y565.0000 Z-0.5000 F1200.00
G1 X136.0000 Y136.0000 Z-0.5000 F1200.00
G0 X136.0000 Y136.0000 Z5.0000
G0 X151.0000 Y151.0000 Z5.0000
G0 X151.0000 Y151.0000 Z2.5000
G1 X151.0000 Y151.0000 Z-0.5000 F1200.00
G1 X329.0000 Y151.0000 Z-0.5000 F1200.00
G1 X329.0000 Y550.0000 Z-0.5000 F1200.00
G1 X151.0000 Y550.0000 Z-0.5000 F1200.00
G1 X151.0000 Y151.0000 Z-0.5000 F1200.00
G0 X151.0000 Y151.0000 Z5.0000
G0 X166.0000 Y166.0000 Z5.0000
G0 X166.0000 Y166.0000 Z2.5000
G1 X166.0000 Y166.0000 Z-0.5000 F1200.00
G1 X314.0000 Y166.0000 Z-0.5000 F1200.00
G1 X314.0000 Y535.0000 Z-0.5000 F1200.00
G1 X166.0000 Y535.0000 Z-0.5000 F1200.00
G1 X166.0000 Y166.0000 Z-0.5000 F1200.00
G0 X166.0000 Y166.0000 Z5.0000
G0 X181.0000 Y181.0000 Z5.0000
G0 X181.0000 Y181.0000 Z2.5000
G1 X181.0000 Y181.0000 Z-0.5000 F1200.00
G1 X299.0000 Y181.0000 Z-0.5000 F1200.00
G1 X299.0000 Y520.0000 Z-0.5000 F1200.00
G1 X181.0000 Y520.0000 Z-0.5000 F1200.00
G1 X181.0000 Y181.0000 Z-0.5000 F1200.00
G0 X181.0000 Y181.0000 Z5.0000
G0 X196.0000 Y196.0000 Z5.0000
G0 X196.0000 Y196.0000 Z2.5000
G1 X196.0000 Y196.0000 Z-0.5000 F1200.00
G1 X284.0000 Y196.0000 Z-0.5000 F1200.00
G1 X284.0000 Y505.0000 Z-0.5000 F1200.00
G1 X196.0000 Y505.0000 Z-0.5000 F1200.00
G1 X196.0000 Y196.0000 Z-0.5000 F1200.00
G0 X196.0000 Y196.0000 Z5.0000
G0 X211.0000 Y211.0000 Z5.0000
G0 X211.0000 Y211.0000 Z2.5000
G1 X211.0000 Y211.0000 Z-0.5000 F1200.00
G1 X269.0000 Y211.0000 Z-0.5000 F1200.00
G1 X269.0000 Y490.0000 Z-0.5000 F1200.00
G1 X211.0000 Y490.0000 Z-0.5000 F1200.00
G1 X211.0000 Y211.0000 Z-0.5000 F1200.00
G0 X211.0000 Y211.0000 Z5.0000
G0 X226.0000 Y226.0000 Z5.0000
G0 X226.0000 Y226.0000 Z2.5000
G1 X226.0000 Y226.0000 Z-0.5000 F1200.00
G1 X254.0000 Y226.0000 Z-0.5000 F1200.00
G1 X254.0000 Y475.0000 Z-0.5000 F1200.00
G1 X226.0000 Y475.0000 Z-0.5000 F1200.00
G1 X226.0000 Y226.0000 Z-0.5000 F1200.00
G0 X226.0000 Y226.0000 Z5.0000
G0 X233.5000 Y233.5000 Z5.0000
G0 X233.5000 Y233.5000 Z2.5000
G1 X233.5000 Y233.5000 Z-0.5000 F1200.00
G1 X246.5000 Y233.5000 Z-0.5000 F1200.00
G1 X246.5000 Y467.5000 Z-0.5000 F1200.00
G1 X233.5000 Y467.5000 Z-0.5000 F1200.00
G1 X233.5000 Y233.5000 Z-0.5000 F1200.00
G0 Z5.0000
(finish operation: MillFace)
(begin postamble)
M5
G17 G90
; M2
